styles/1/Numix/48/places/orange-folder-ubuntu.svg

<?xml version="1.0" encoding="UTF-8" standalone="no"?>
<!-- Created with Inkscape (http://www.inkscape.org/) -->

<svg
   xmlns:dc="http://purl.org/dc/elements/1.1/"
   xmlns:cc="http://creativecommons.org/ns#"
   xmlns:rdf="http://www.w3.org/1999/02/22-rdf-syntax-ns#"
   xmlns:svg="http://www.w3.org/2000/svg"
   xmlns="http://www.w3.org/2000/svg"
   xmlns:sodipodi="http://sodipodi.sourceforge.net/DTD/sodipodi-0.dtd"
   xmlns:inkscape="http://www.inkscape.org/namespaces/inkscape"
   width="48"
   height="48"
   id="svg2"
   version="1.1"
   inkscape:version="0.91 r"
   sodipodi:docname="orange-folder-ubuntu.svg">
  <defs
     id="defs4" />
  <sodipodi:namedview
     id="base"
     pagecolor="#ffffff"
     bordercolor="#666666"
     borderopacity="1.0"
     inkscape:pageopacity="0.0"
     inkscape:pageshadow="2"
     inkscape:zoom="8.8138918"
     inkscape:cx="-6.3977256"
     inkscape:cy="6.527918"
     inkscape:document-units="px"
     inkscape:current-layer="layer1"
     showgrid="true"
     inkscape:window-width="1280"
     inkscape:window-height="998"
     inkscape:window-x="0"
     inkscape:window-y="0"
     inkscape:window-maximized="1">
    <inkscape:grid
       type="xygrid"
       id="grid2990"
       empspacing="5"
       visible="true"
       enabled="true"
       snapvisiblegridlinesonly="true" />
  </sodipodi:namedview>
  <metadata
     id="metadata7">
    <rdf:RDF>
      <cc:Work
         rdf:about="">
        <dc:format>image/svg+xml</dc:format>
        <dc:type
           rdf:resource="http://purl.org/dc/dcmitype/StillImage" />
        <dc:title />
      </cc:Work>
    </rdf:RDF>
  </metadata>
  <g
     inkscape:label="Body"
     inkscape:groupmode="layer"
     id="layer1"
     transform="translate(0,-1004.3622)">
    <path
       style="font-size:medium;font-style:normal;font-variant:normal;font-weight:normal;font-stretch:normal;text-indent:0;text-align:start;text-decoration:none;line-height:normal;letter-spacing:normal;word-spacing:normal;text-transform:none;direction:ltr;block-progression:tb;writing-mode:lr-tb;text-anchor:start;baseline-shift:baseline;color:#000000;fill:#f57c00;fill-opacity:1;fill-rule:nonzero;stroke:none;stroke-width:3.00000024;marker:none;visibility:visible;display:inline;overflow:visible;enable-background:accumulate;font-family:Sans;-inkscape-font-specification:Sans"
       d="M 5.1875 8 C 4.5111319 8.1439 3.9849192 8.8086 4 9.5 L 4 37.5 C 4.0000786 38.2853 4.7146233 38.9999 5.5 39 L 42.5 39 C 43.285377 38.9999 43.999921 38.2853 44 37.5 L 44 12.53125 C 43.999921 11.74585 43.285377 11.03135 42.5 11.03125 L 28 11.03125 L 28 9.5 C 27.999921 8.7146 27.285377 8 26.5 8 L 5.5 8 C 5.3962117 7.989 5.2912883 7.989 5.1875 8 z M 28.96875 16.625 C 29.281501 16.603197 29.583003 16.67755 29.875 16.84375 C 30.65383 17.28715 30.918443 18.26335 30.46875 19.03125 C 30.019317 19.79885 29.028744 20.0684 28.25 19.625 C 27.471427 19.1819 27.20673 18.205 27.65625 17.4375 C 27.937308 16.957562 28.447498 16.661339 28.96875 16.625 z M 24.90625 18.34375 C 25.560997 18.34375 26.210846 18.42955 26.8125 18.59375 C 26.918857 19.23865 27.318635 19.8353 27.9375 20.1875 C 28.555591 20.5394 29.255962 20.57435 29.875 20.34375 C 31.079084 21.51095 31.854562 23.1066 31.96875 24.875 L 29.65625 24.90625 C 29.442589 22.51105 27.391089 20.625 24.90625 20.625 C 24.190235 20.625 23.51522 20.7831 22.90625 21.0625 L 21.78125 19.0625 C 22.726241 18.6009 23.780212 18.34375 24.90625 18.34375 z M 21 19.5 L 22.1875 21.46875 C 20.964657 22.31725 20.15625 23.7259 20.15625 25.3125 C 20.15625 26.8994 20.964657 28.30785 22.1875 29.15625 L 21 31.125 C 19.575026 30.1864 18.502728 28.7434 18.0625 27.0625 C 18.576903 26.6493 18.90625 26.0179 18.90625 25.3125 C 18.90625 24.6069 18.576816 23.9758 18.0625 23.5625 C 18.502813 21.8818 19.575026 20.4386 21 19.5 z M 16.625 23.71875 C 17.524213 23.71875 18.25 24.4256 18.25 25.3125 C 18.25 26.199 17.524126 26.90625 16.625 26.90625 C 15.725529 26.90625 15 26.199 15 25.3125 C 15 24.4256 15.725529 23.71875 16.625 23.71875 z M 29.65625 25.71875 L 31.96875 25.75 C 31.854735 27.5184 31.078998 29.11405 29.875 30.28125 C 29.255963 30.05055 28.555591 30.0858 27.9375 30.4375 C 27.318548 30.79 26.918857 31.38645 26.8125 32.03125 C 26.210759 32.19495 25.560997 32.28125 24.90625 32.28125 C 23.780211 32.28125 22.726327 32.0239 21.78125 31.5625 L 22.90625 29.5625 C 23.515306 29.8419 24.190149 30 24.90625 30 C 27.391089 30 29.442763 28.11425 29.65625 25.71875 z M 29.1875 30.78125 C 29.708741 30.817583 30.1878 31.114063 30.46875 31.59375 C 30.918357 32.36155 30.653572 33.33795 29.875 33.78125 C 29.096169 34.22445 28.105942 33.9554 27.65625 33.1875 C 27.206815 32.42 27.471169 31.4433 28.25 31 C 28.541964 30.8338 28.874756 30.75945 29.1875 30.78125 z "
       transform="translate(0,1004.3622)"
       id="path3912" />
  </g>
</svg>

<!-- Created with Inkscape (http://www.inkscape.org/) -->
<svg xmlns="http://www.w3.org/2000/svg" viewBox="0 0 48 48">
 <g transform="translate(0,-1004.3622)">
  <path d="m 5.188 8 c -0.676 0.144 -1.203 0.809 -1.188 1.5 l 0 28 c 0 0.785 0.715 1.5 1.5 1.5 l 37 0 c 0.785 0 1.5 -0.715 1.5 -1.5 l 0 -24.969 c 0 -0.785 -0.715 -1.5 -1.5 -1.5 l -14.5 0 l 0 -1.531 c 0 -0.785 -0.715 -1.5 -1.5 -1.5 l -21 0 c -0.104 -0.011 -0.209 -0.011 -0.313 0 z m 23.781 8.625 c 0.313 -0.022 0.614 0.053 0.906 0.219 c 0.779 0.443 1.043 1.42 0.594 2.188 c -0.449 0.768 -1.44 1.037 -2.219 0.594 c -0.779 -0.443 -1.043 -1.42 -0.594 -2.188 c 0.281 -0.48 0.791 -0.776 1.313 -0.813 z m -4.063 1.719 c 0.655 0 1.305 0.086 1.906 0.25 c 0.106 0.645 0.506 1.242 1.125 1.594 c 0.618 0.352 1.318 0.387 1.938 0.156 c 1.204 1.167 1.98 2.763 2.094 4.531 l -2.313 0.031 c -0.214 -2.395 -2.265 -4.281 -4.75 -4.281 c -0.716 0 -1.391 0.158 -2 0.438 l -1.125 -2 c 0.945 -0.462 1.999 -0.719 3.125 -0.719 z m -3.906 1.156 l 1.188 1.969 c -1.223 0.849 -2.031 2.257 -2.031 3.844 c 0 1.587 0.808 2.995 2.031 3.844 l -1.188 1.969 c -1.425 -0.939 -2.497 -2.382 -2.938 -4.063 c 0.514 -0.413 0.844 -1.045 0.844 -1.75 c 0 -0.706 -0.329 -1.337 -0.844 -1.75 c 0.44 -1.681 1.513 -3.124 2.938 -4.063 z m -4.375 4.219 c 0.899 0 1.625 0.707 1.625 1.594 c 0 0.887 -0.726 1.594 -1.625 1.594 c -0.899 0 -1.625 -0.707 -1.625 -1.594 c 0 -0.887 0.726 -1.594 1.625 -1.594 z m 13.03 2 l 2.313 0.031 c -0.114 1.768 -0.89 3.364 -2.094 4.531 c -0.619 -0.231 -1.319 -0.195 -1.938 0.156 c -0.619 0.352 -1.019 0.949 -1.125 1.594 c -0.602 0.164 -1.252 0.25 -1.906 0.25 c -1.126 0 -2.18 -0.257 -3.125 -0.719 l 1.125 -2 c 0.609 0.279 1.284 0.438 2 0.438 c 2.485 0 4.537 -1.886 4.75 -4.281 z m -0.469 5.063 c 0.521 0.036 1 0.333 1.281 0.813 c 0.45 0.768 0.185 1.744 -0.594 2.188 c -0.779 0.443 -1.769 0.174 -2.219 -0.594 c -0.449 -0.767 -0.185 -1.744 0.594 -2.188 c 0.292 -0.166 0.625 -0.241 0.938 -0.219 z" transform="translate(0,1004.3622)" style="visibility:visible;fill:#f57c00;fill-opacity:1;stroke:none;display:inline;color:#000;fill-rule:nonzero"/>
 </g>
</svg>
